X: 33753
T: Rattlin' Bog, The
R: polka
M: 2/4
K: Dmajor
B2 B>A|GE EG/E/|DG G/F/G/A/|BA Ad|
B2 B>A|GE EG/E/|Dd dB|AG G2||
BG AG|BG AG|Bd- dB|AG A2|
BG AG|BG AG|Bd dB|AG G2||

